Sources/FrostedUI/Resources/Icons.xcassets/arrowDownAngleLeft12.imageset/arrow-down-angle-left-12.svg

<svg width="12" height="12" viewBox="0 0 12 12" fill="none" xmlns="http://www.w3.org/2000/svg" data-fui-icon="true">
  <g clip-path="url(#clip0_882_1392)">
    <path
      d="M11.25 1.5C11.6642 1.5 12 1.83579 12 2.25V6.3125C12 7.24448 11.2445 8 10.3125 8H2.5293L3.72461 9.22656C4.01365 9.52315 4.00747 9.99799 3.71094 10.2871C3.41435 10.5761 2.93951 10.57 2.65039 10.2734L0.212891 7.77344C-0.0709464 7.48219 -0.0709464 7.01781 0.212891 6.72656L2.65039 4.22656C2.93951 3.93003 3.41435 3.92385 3.71094 4.21289C4.00747 4.50201 4.01365 4.97685 3.72461 5.27344L2.5293 6.5H10.3125C10.4161 6.5 10.5 6.41605 10.5 6.3125V2.25C10.5 1.83579 10.8358 1.5 11.25 1.5Z"
      fill="currentColor"
    />
  </g>
  <defs>
    <clipPath id="clip0_882_1392"><path fill="currentColor" d="M0 0H12V12H0z" /></clipPath>
  </defs>
</svg>

<svg xmlns="http://www.w3.org/2000/svg" width="12" height="12" fill="none" data-fui-icon="true" viewBox="0 0 12 12"><g clip-path="url(#a)"><path fill="currentColor" d="M11.25 1.5a.75.75 0 0 1 .75.75v4.063C12 7.244 11.245 8 10.313 8H2.529l1.196 1.227a.75.75 0 0 1-1.075 1.046l-2.437-2.5a.75.75 0 0 1 0-1.046l2.437-2.5a.75.75 0 0 1 1.075 1.046L2.529 6.5h7.784a.187.187 0 0 0 .187-.187V2.25a.75.75 0 0 1 .75-.75"/></g><defs><clipPath id="a"><path fill="currentColor" d="M0 0h12v12H0z"/></clipPath></defs></svg>
